ww/assets/grid.svg

<?xml version="1.0" encoding="UTF-8" standalone="no"?>
<!-- Created with Inkscape (http://www.inkscape.org/) -->

<svg
   width="16"
   height="16"
   viewBox="0 0 4.2333332 4.2333333"
   version="1.1"
   id="svg14367"
   inkscape:version="1.2.1 (9c6d41e410, 2022-07-14)"
   sodipodi:docname="grid.svg"
   xmlns:inkscape="http://www.inkscape.org/namespaces/inkscape"
   xmlns:sodipodi="http://sodipodi.sourceforge.net/DTD/sodipodi-0.dtd"
   xmlns="http://www.w3.org/2000/svg"
   xmlns:svg="http://www.w3.org/2000/svg">
  <sodipodi:namedview
     id="namedview14369"
     pagecolor="#ffffff"
     bordercolor="#666666"
     borderopacity="1.0"
     inkscape:showpageshadow="2"
     inkscape:pageopacity="0.0"
     inkscape:pagecheckerboard="true"
     inkscape:deskcolor="#d1d1d1"
     inkscape:document-units="mm"
     showgrid="true"
     inkscape:zoom="31.405699"
     inkscape:cx="9.5524063"
     inkscape:cy="8.3424349"
     inkscape:window-width="1920"
     inkscape:window-height="1014"
     inkscape:window-x="0"
     inkscape:window-y="0"
     inkscape:window-maximized="1"
     inkscape:current-layer="layer1">
    <inkscape:grid
       type="xygrid"
       id="grid17755"
       originx="0"
       originy="0" />
  </sodipodi:namedview>
  <defs
     id="defs14364" />
  <g
     inkscape:label="Layer 1"
     inkscape:groupmode="layer"
     id="layer1">
    <path
       id="rect20431"
       style="fill:#000000;fill-opacity:0.09476591;stroke-width:0.529167"
       d="M 2.1166667 0 L 2.1166667 1.8520833 L 0 1.8520833 L 0 2.1166667 L 2.1166667 2.1166667 L 2.1166667 4.2333333 L 2.38125 4.2333333 L 2.38125 2.1166667 L 4.2333333 2.1166667 L 4.2333333 1.8520833 L 2.38125 1.8520833 L 2.38125 0 L 2.1166667 0 z " />
  </g>
</svg>

<svg width="16" height="16" viewBox="0 0 4.233 4.233" xmlns="http://www.w3.org/2000/svg"><path style="fill:#000;fill-opacity:.09476591;stroke-width:.529167" d="M2.117 0v1.852H0v.265h2.117v2.116h.264V2.117h1.852v-.265H2.381V0h-.264z"/></svg>
